X: 57
T:Kinrara
B:William Marshall's Scottish Airs, Melodies, Strathspeys, Reels &c (1822)
C:William Marshall
L:1/8
M:C
O:Scotland
R:Slow Air
Z:Clark Bernst + Richard Robinson
%%Caption:"Where the Duchess of Gordon resided in Badenoch"
%%Page:2 - 1
F:http://richardrobinson.tunebook.org.uk/tune/3900
%%TBL:{"version":1,"type":"tune","id":"3900"}
K:Bb
%%staves { 1 2 }
V: 1
"^Slow" B | \
(B,>B) (B>c) (B>G) (F>D) | (B,<B) {cBA}Bc/d/ c2 C{E}D/C/ | \
B,<B f>d (g>f) !fermata! b>{abc'ba}g | (f>d) (!trill! c>d) B2 BB |
(B,>B) (B>c) (B>G) (F>D) | B,<B {cBA}Bc/d/ c2 C{E}D/C/ | \
B,<B f>d (g>f) !fermata! b>{abc'ba}g | (f>d) (!trill!c>d) B2 B ||
{edc}(d/e/) | \
[df]>[eg] [df]<d (B>d) (F>B) | G>FE>D C2 Cd/e/ | \
f>gf>d (fg/a/ b)B | edeg !trill!g2 (f{edc}d/e/) |
(f.d) .B.d (f>.d) .B.d | G<c c>B {Bc}d2 {ed}cD/C/ | \
B,<B (f>d) (g>f) !fermata!b>{ababc'ba}g | (f<d) (!trill!c>d) B2 - B |]
V:2 middle=d clef=bass
z | \
B2 B2 d>e dB | d2 B2 f2 e2 | d2 d2 e2 !tentuot!d>e | f2 F2 BbBz | \
B2 B2 d>e dB | d2 B2 f2 e2 | d2 d2 e2 !tentuot!d>e | f2 F2 BbB || \
z | \
B2 B2 B2 d2 | e>dc>B f2 fz | B2 B2 Be dB | gfge B2Bz | \
[Bdfb]4 [Bdfb]4 | e2 e2 f3z |d2 d2 e2 !fermata!d>e | f2F2 BbB |]

